resources/haticons/SVG/wordpress.svg

<!-- Generated by IcoMoon.io -->
<svg version="1.1" xmlns="http://www.w3.org/2000/svg" width="24" height="24" viewBox="0 0 24 24">
<title>wordpress</title>
<path d="M3 12c0 3.469 2.070 6.468 5.073 7.889l-4.293-11.456c-0.499 1.090-0.779 2.296-0.779 3.567zM18.076 11.558c0-1.084-0.4-1.834-0.742-2.417-0.456-0.722-0.884-1.333-0.884-2.056 0-0.806 0.627-1.556 1.511-1.556 0.040 0 0.078 0.005 0.117 0.007-1.601-1.429-3.735-2.301-6.078-2.301-3.144 0-5.911 1.571-7.52 3.951 0.211 0.007 0.41 0.011 0.579 0.011 0.941 0 2.399-0.111 2.399-0.111 0.485-0.028 0.542 0.666 0.058 0.722 0 0-0.488 0.055-1.030 0.083l3.277 9.495 1.97-5.753-1.402-3.742c-0.485-0.028-0.944-0.083-0.944-0.083-0.485-0.028-0.428-0.75 0.057-0.722 0 0 1.486 0.111 2.37 0.111 0.941 0 2.399-0.111 2.399-0.111 0.485-0.028 0.542 0.666 0.057 0.722 0 0-0.488 0.056-1.030 0.083l3.253 9.422 0.898-2.921c0.389-1.213 0.685-2.084 0.685-2.834zM12.158 12.766l-2.701 7.642c0.807 0.231 1.659 0.357 2.543 0.357 1.048 0 2.053-0.176 2.989-0.497-0.024-0.038-0.046-0.077-0.064-0.121l-2.766-7.381zM19.898 7.795c0.039 0.279 0.061 0.579 0.061 0.901 0 0.889-0.171 1.889-0.684 3.139l-2.749 7.741c2.676-1.519 4.475-4.343 4.475-7.576 0-1.524-0.4-2.957-1.102-4.205zM12 0c-6.627 0-12 5.373-12 12s5.373 12 12 12 12-5.373 12-12-5.373-12-12-12zM12 22.5c-5.799 0-10.5-4.701-10.5-10.5s4.701-10.5 10.5-10.5 10.5 4.701 10.5 10.5-4.701 10.5-10.5 10.5z"></path>
</svg>

<svg xmlns="http://www.w3.org/2000/svg" width="24" height="24"><path d="M3 12c0 3.469 2.07 6.468 5.073 7.889L3.78 8.433A8.542 8.542 0 0 0 3.001 12zm15.076-.442c0-1.084-.4-1.834-.742-2.417-.456-.722-.884-1.333-.884-2.056 0-.806.627-1.556 1.511-1.556.04 0 .078.005.117.007A9.1 9.1 0 0 0 12 3.235c-3.144 0-5.911 1.571-7.52 3.951.211.007.41.011.579.011.941 0 2.399-.111 2.399-.111.485-.028.542.666.058.722 0 0-.488.055-1.03.083l3.277 9.495 1.97-5.753-1.402-3.742a17.494 17.494 0 0 1-.944-.083c-.485-.028-.428-.75.057-.722 0 0 1.486.111 2.37.111.941 0 2.399-.111 2.399-.111.485-.028.542.666.057.722 0 0-.488.056-1.03.083l3.253 9.422.898-2.921c.389-1.213.685-2.084.685-2.834zm-5.918 1.208l-2.701 7.642a9.223 9.223 0 0 0 5.532-.14.772.772 0 0 1-.064-.121l-2.766-7.381zm7.74-4.971c.039.279.061.579.061.901 0 .889-.171 1.889-.684 3.139l-2.749 7.741c2.676-1.519 4.475-4.343 4.475-7.576 0-1.524-.4-2.957-1.102-4.205zM12 0C5.373 0 0 5.373 0 12s5.373 12 12 12 12-5.373 12-12S18.627 0 12 0zm0 22.5C6.201 22.5 1.5 17.799 1.5 12S6.201 1.5 12 1.5 22.5 6.201 22.5 12 17.799 22.5 12 22.5z"/></svg>
